!!! OTL: Berkowitz595
!!! Chapter: 1
!!! Section: V
!!! Page: 151
!!! Mode: 
!!! Encoder: AR
**kern
*staff1
=1-
!!pagebreak:original
*clefG2
*k[]
*C:
*M3/4
4a/
4.cc\
8ee\
=2
4gg#\
4.ee\
8a/
=3
[2.dd#\
=4
2dd#\]
4r
=5
4cc#\
4.ee\
8gg#\
=6
4bb#\
8gg#\L
8bb#\J
8gg#\L
8cc#\J
=7
[2.ggn\
=8
2gg\]
4r
=9
!!linebreak:original
4aa-\
4dd\
4aa-\
=10
2.gg\
=11
4aa\
4ee-\
4aa\
=12
2.aa-\
=13
4ccc\
4.gg#\
8ee\
=14
4ff#\
4ffn\
4ee\
=15
4ee-\
4dd\
4a/
=16
2.cc#\
=17
4f#/
4.a/
8cc#\
=18
!!linebreak:original
4ee#\
4cc#\
4f#/
=19
4ccn\
4gg\
4ff#\
=20
2.ee\
=21
4ff\
4.b\
8ff\
=22
4ee\
4cc\
4a-/
=23
2.r
=24
2.b\
=25
2.b\
=26
g#Q/
2.b\
==
*-
